X: 39
M: C|
L: 1/8
K: Bb
|:\
EGcE DFBd | (3edc (3dcB (3BcB A2 |
Egfe dABG | (3FGF (3DcA B2B,2 :|
|:\
fdcB fdcB | b2ab ^f2g2 |\
gfed cBcd | eefg (3BcB A2 |
Egfe dABG | (3FGE (3DEC B,2B2 H:|

